X: 778
T: Qiunyinghei
L: 1/8
M: 2/4
K: G
d ed2 [I:setbarnb 1]| 
d ed2 | 
d e d e | 
d e A A- | 
A d B d | 
e gd2 | 
B d A G | 
D4 | 
d d B d | 
A GD2 | 
d d B d | 
A GD2 | 
G F E G | 
A Bd2 | 
c B A A | 
B ED2 |]

@@@ Tune index: 9652
